X:8709
T:Knights of St. Patrick
R:jig
S:Natalie McMaster
H:
N:
D:Solo Album #1
Z:Adrian Scahill
M:6/8
L:1/8
K:D
dcd faf|dcd AFD|GBG FAF|E=CE GFE|\
dcd faf|dcd AFD|GBG FAF|DED D3:||\
aba fdf|aba agf|gag e=ce|gag gfe|\
1 aba fdf|aba a2g|fef gec|edd d3:|2 dcd ede|fgf efg|afd bge|fdB AFD||
